X:5
T:Traditional Jig
R:jig
D:Kinnon & Betty Beaton, Cape Breton Fiddle Compilation
Z:Paul Stewart Cranford (P.S.C.), <http://www.cranfordpub.com>
L:1/8
M:6/8
Q:300
K:G
D|GBd g2 f|agf efg|GBd gbg|edB AFD|
GBd g2 f|agf efg|ded cBA|BGG G2:|
|:E|DGG BGG|dGG BAG|DGG BAG|EAA A2 E|
DGG BGG|dGG Bcd|ece dBA|BGG G2:|
